_/img/chevron-up-grey.svg

<svg width="14" height="8" viewBox="0 0 14 8" fill="none" xmlns="http://www.w3.org/2000/svg">
<path d="M11.8306 7.63819C12.1001 7.95269 12.5736 7.98911 12.8881 7.71954C13.2026 7.44997 13.239 6.9765 12.9695 6.662L11.8306 7.63819ZM7.00002 0.850098L7.56947 0.362004C7.42698 0.19577 7.21897 0.100098 7.00002 0.100098C6.78108 0.100098 6.57307 0.19577 6.43058 0.362004L7.00002 0.850098ZM1.03058 6.662C0.761015 6.9765 0.797437 7.44997 1.11193 7.71954C1.42642 7.98911 1.8999 7.95269 2.16947 7.63819L1.03058 6.662ZM12.9695 6.662L7.56947 0.362004L6.43058 1.33819L11.8306 7.63819L12.9695 6.662ZM6.43058 0.362004L1.03058 6.662L2.16947 7.63819L7.56947 1.33819L6.43058 0.362004Z" fill="#C5CFE4"/>
</svg>

<svg width="14" height="8" viewBox="0 0 14 8" fill="none" xmlns="http://www.w3.org/2000/svg"><path d="M11.83 7.638a.75.75 0 101.14-.976l-1.14.976zM7 .85l.57-.488a.75.75 0 00-1.14 0L7 .85zM1.03 6.662a.75.75 0 001.14.976l-1.14-.976zm11.94 0l-5.4-6.3-1.14.976 5.4 6.3 1.14-.976zM6.43.362l-5.4 6.3 1.14.976 5.4-6.3L6.43.362z" fill="#C5CFE4"/></svg>
